dist/icons/svgs/square-small-outline.svg

<svg xmlns="http://www.w3.org/2000/svg" width="24" height="24" fill="currentcolor" class="icon-square-small-outline" viewBox="0 0 24 24">
  <path d="M16.25 7.625H8.75C8.39844 7.625 8.125 7.9375 8.125 8.25V15.75C8.125 16.1016 8.39844 16.375 8.75 16.375H16.25C16.5625 16.375 16.875 16.1016 16.875 15.75V8.25C16.875 7.9375 16.5625 7.625 16.25 7.625ZM8.75 5.75H16.25C17.6172 5.75 18.75 6.88281 18.75 8.25V15.75C18.75 17.1562 17.6172 18.25 16.25 18.25H8.75C7.34375 18.25 6.25 17.1562 6.25 15.75V8.25C6.25 6.88281 7.34375 5.75 8.75 5.75Z"/>
</svg>

<svg xmlns="http://www.w3.org/2000/svg" width="24" height="24" fill="currentColor" class="icon-square-small-outline" viewBox="0 0 24 24">
  <path d="M16.25 7.625h-7.5a.64.64 0 0 0-.625.625v7.5c0 .352.273.625.625.625h7.5a.64.64 0 0 0 .625-.625v-7.5c0-.312-.312-.625-.625-.625M8.75 5.75h7.5c1.367 0 2.5 1.133 2.5 2.5v7.5c0 1.406-1.133 2.5-2.5 2.5h-7.5a2.47 2.47 0 0 1-2.5-2.5v-7.5c0-1.367 1.094-2.5 2.5-2.5"/>
</svg>
